papirus/32x32/apps/chrome-knipolnnllmklapflnccelgolnpehhpl.svg

<svg height="32" viewBox="-.001 0 32 31.999999" width="32" xmlns="http://www.w3.org/2000/svg"><path d="m27.804825 11.877063c-.442354-2.3169267-1.498431-4.3406624-3.166645-6.0677069-.704157-.7290985-1.493205-1.3626474-2.363978-1.9004945-1.622126-1.0017497-3.389169-1.6155191-5.305406-1.8329403-.23361-.026626-.470547-.023127-.700831-.075922h-1.653327c-.01789.040015-.05622.025409-.08663.028148-.425726.036059-.849392.082617-1.269573.159148-3.070509.5586912-5.5920743 2.0069986-7.5437885 4.3464431-1.605338 1.9239255-2.489414 4.1309996-2.6804199 6.5918596-.092494 1.192697-.00285 2.374287.2692454 3.540205.2020927.867251.5039646 1.705136.9097335 2.506049.035632.06816.070796.136325.1070651.204488.6666207 1.261012 1.524089 2.384785 2.5986959 3.355344.5657326.510917 1.1704269.973146 1.8250108 1.372537 1.7331867 1.056799 3.6072377 1.639903 5.6145897 1.847369.440433.04552.440433.04552.440433.04552.146026.002.20105.03652.2001.17984-.0066 1.222974-.0038 2.446101-.0035 3.669228.000159.04747.0039.09479.0068.153822.532453.04399.990439-.221332 1.407293-.417734 2.077724-1.01417 3.99818-2.257029 5.731766-3.771077.389455-.340053.762123-.696387 1.120537-1.067478.15347-.158692.305673-.320122.45946-.478661.237569-.244047.443146-.516699.667095-.773679.258635-.296386.490819-.611487.719836-.928566.506341-.700798.958515-1.431875 1.338626-2.204184.192273-.390414.37536-.783872.537383-1.186611.0054-.0076.01267-.0143.01615-.02252.441563-1.102777.724588-2.243895.875207-3.414682.05259-.40776.08663-.818107.108173-1.228148.04593-.882922-.01346-1.760822-.179128-2.629593z" fill="#16a05d"/><path d="m13.34275 11.000506c-1.561439.0018-3.122327.0011-4.6835938.002-.118639 0-.2308793.02502-.3339843.08789-.265452.160822-.3513925.397953-.3203125.6875.0009.0149.00195.03002.00195.04492-.0012 1.547336-.00339 2.431345-.00391 3.978515 0 .392956.2764826 1.188813.6796876 1.195313.1075429.0018.2148926.0018.3222656.002.987699.0019 2.0067836.0039 2.9941406.0059-.07853.434153-.283078.953971-.625 1.261719-.284906.256289-.38401.369932-.75.451172-.288667.06386-.513331.159748-.513672.384765-.0002.06436.0026.12867.0039.19336l-.0078.878906c.0013.163635.0015.326764.0039.490234.0029.233289.07512.364159.314453.330079.313755-.04434.619631-.113876.923828-.197266.01127-.0061.0239-.01128.03516-.01758.02032-.0056.03896-.01063.05859-.01563.03584-.01754.07072-.03752.107422-.05273 1.455772-.58687 2.444013-2.017275 2.445313-3.544922.0016-1.710143 0-3.418929 0-5.128907 0-.07843.0064-.159255-.02539-.234375.132979-.397423-.211116-.803231-.626953-.802734zm9 0c-1.561439.0018-3.122327.0011-4.683594.002-.118639 0-.230879.02502-.333984.08789-.265452.160822-.351393.397953-.320313.6875.0009.0149.002.03002.002.04492-.0012 1.547336-.0034 2.431345-.0039 3.978515 0 .392956.276483 1.188813.679688 1.195313.107543.0018.214892.0018.322265.002.987699.0019 2.006784.0039 2.994141.0059-.07852.434153-.283078.953971-.625 1.261719-.284906.256289-.38401.369932-.75.451172-.288667.06386-.513331.159748-.513672.384765-.0002.06436.0026.12867.0039.19336l-.0078.878906c.0013.163635.0015.326764.0039.490234.0029.233289.07512.364159.314453.330079.313755-.04434.619631-.113876.923828-.197266.01127-.0061.0239-.01128.03516-.01758.02032-.0056.03896-.01063.05859-.01563.03584-.01754.07072-.03752.107422-.05273 1.455772-.58687 2.444013-2.017275 2.445313-3.544922.0016-1.710143 0-3.418929 0-5.128907 0-.07843.0064-.159255-.02539-.234375.132979-.397423-.211116-.803231-.626953-.802734z" opacity=".2"/><path d="m13.34375 10c-1.561439.001796-3.122327.001113-4.6835938.001953-.118639 0-.2308793.025021-.3339843.087891-.265452.160822-.3513925.397953-.3203125.6875.0009.0149.0019531.030022.0019531.044922-.0012 1.547336-.0033922 2.431345-.0039063 3.978515 0 .392956.2764826 1.188813.6796876 1.195313.1075429.001796.2148926.001788.3222656.001953.987699.0019 2.0067836.003859 2.9941406.005859-.078525.434153-.283078.953971-.625 1.261719-.284906.256289-.38401.369932-.75.451172-.288667.063865-.513331.159748-.513672.384765-.0002.064363.002606.12867.003906.19336l-.007812.878906c.0013.163635.001506.326764.003906.490234.002902.233289.075123.364159.314453.330079.313755-.044342.619631-.113876.923828-.197266.01127-.00611.023897-.011278.035157-.017578.02032-.00563.038963-.010625.058593-.015625.035843-.01754.070722-.037515.107422-.052734 1.455772-.58687 2.444013-2.017275 2.445313-3.544922.001614-1.710143 0-3.418929 0-5.128907 0-.078426.006359-.159255-.025391-.234375.132979-.397423-.211116-.803231-.626953-.802734zm9 0c-1.561439.001796-3.122327.001113-4.683594.001953-.118639 0-.230879.025021-.333984.087891-.265452.160822-.351393.397953-.320313.6875.0009.0149.001953.030022.001953.044922-.001199 1.547336-.003392 2.431345-.003906 3.978515 0 .392956.276483 1.188813.679688 1.195313.107543.001796.214892.001788.322265.001953.987699.0019 2.006784.003859 2.994141.005859-.078525.434153-.283078.953971-.625 1.261719-.284906.256289-.38401.369932-.75.451172-.288667.063865-.513331.159748-.513672.384765-.0002.064363.002606.12867.003906.19336l-.007812.878906c.0013.163635.001506.326764.003906.490234.002902.233289.075123.364159.314453.330079.313755-.044342.619631-.113876.923828-.197266.01127-.00611.023897-.011278.035157-.017578.02032-.00563.038963-.010625.058593-.015625.035843-.01754.070722-.037515.107422-.052734 1.455772-.58687 2.444013-2.017275 2.445313-3.544922.001614-1.710143 0-3.418929 0-5.128907 0-.078426.006359-.159255-.025391-.234375.132979-.397423-.211116-.803231-.626953-.802734z" fill="#fff" transform="translate(-.001 -.00000095)"/><path d="m14.615234 2c-.01789.040015-.055527.0246048-.085937.0273438-.425726.0360589-.84935.0836252-1.269531.1601562-3.070509.5586912-5.5932081 2.0062586-7.5449222 4.3457031-1.605338 1.9239255-2.4886816 4.1309369-2.6796876 6.5917969-.0364389.469875-.0357425.938148-.015625 1.404297.0058128-.136061.0050504-.271845.015625-.408203.191006-2.46086 1.0743496-4.6678716 2.6796876-6.5917971 1.9517141-2.3394445 4.4744132-3.7889651 7.5449222-4.3476563.420181-.076531.843805-.1221441 1.269531-.1582031.03041-.002739.068047.0126712.085937-.0273437h1.654297c.230284.052795.467562.0475927.701172.0742187 1.916237.2174212 3.682562.8322347 5.304688 1.8339844.870773.5378471 1.659124 1.1712921 2.363281 1.9003906 1.668214 1.7270445 2.725615 3.7514325 3.167969 6.0683595.108076.56676.153993 1.137548.171875 1.710937.001471-.026049.00449-.052077.005859-.078125.04593-.882922-.012066-1.760135-.177734-2.628906-.442354-2.3169266-1.499755-4.3413147-3.167969-6.0683592-.704157-.7290985-1.492508-1.3625436-2.363281-1.9003907-1.622126-1.0017497-3.388451-1.61461-5.304688-1.8320312-.23361-.026626-.470888-.0233769-.701172-.0761719zm.382813 25.167969c-.001746.892862-.002172 1.784813-.001953 2.677734.000022.006623.001803.014835.001953.021485-.000579-.898297-.002894-1.797121.001953-2.695313.000014-.002067-.001943-.001884-.001953-.003906z" fill="#fff" opacity=".2" transform="translate(-.001 -.00000095)"/><path d="m3.0195312 13.527344c-.0456433 1.05602.0437231 2.10414.2851563 3.138672.2020927.867251.5043873 1.704946.9101563 2.505859.0356319.06816.0691996.136915.1054687.205078.6666207 1.261012 1.5250025 2.38491 2.5996094 3.355469.5657326.510917 1.1696348.971703 1.8242187 1.371094 1.7331864 1.056799 3.6078824 1.64019 5.6152344 1.847656l.441406.046875c.143947.001971.196624.037541.197266.175781.000643-.333913.000151-.668059.001953-1.001953.00095-.14332-.053193-.177688-.199219-.179687l-.441406-.044922c-2.007352-.207466-3.882048-.790858-5.6152344-1.847657-.6545839-.399391-1.2584861-.86213-1.8242187-1.373047-1.0746069-.970558-1.9329887-2.094456-2.5996094-3.355468-.0362691-.068163-.0698368-.134965-.1054687-.203125-.405769-.800913-.7080636-1.640562-.9101563-2.507813-.1646648-.705582-.254062-1.416763-.2851563-2.132812zm24.9570308.052734c-.021684.383962-.050367.76859-.099609 1.150391-.150619 1.170787-.433437 2.311285-.875 3.414062-.00348.00822-.010225.015838-.015625.023438-.162023.402739-.346789.795133-.539062 1.185547-.380111.772309-.83155 1.50428-1.337891 2.205078-.229017.317079-.462068.631348-.720703.927734-.223949.25698-.428447.529391-.666016.773438-.153787.158539-.305514.319823-.458984.478515-.358414.371091-.731639.728307-1.121094 1.06836-1.733586 1.514048-3.654698 2.757314-5.732422 3.771484-.416854.196402-.873797.461959-1.40625.417969-.002495-.050796-.004936-.091803-.005859-.132813.00021.327598-.002034.654822-.001953.982422.000159.04747.004912.095265.007812.154297.532453.04399.989396-.221567 1.40625-.417969 2.077724-1.01417 3.998836-2.257436 5.732422-3.771484.389455-.340053.76268-.695315 1.121094-1.066406.15347-.158692.305197-.319977.458984-.478516.237569-.244047.442067-.516457.666016-.773437.258635-.296386.491686-.612609.720703-.929688.506341-.700798.95778-1.430816 1.337891-2.203125.192273-.390414.377039-.784761.539062-1.1875.0054-.0076.012145-.013264.015625-.021484.441563-1.102777.724381-2.245229.875-3.416016.05259-.40776.085879-.818475.107422-1.228516.016127-.310006.00207-.617191-.007813-.925781z" opacity=".3" transform="translate(-.001 -.00000095)"/></svg>

<?xml version="1.0" encoding="UTF-8" standalone="no"?>
<!-- Generator: Adobe Illustrator 16.0.0, SVG Export Plug-In . SVG Version: 6.00 Build 0) -->

<svg
   xmlns:dc="http://purl.org/dc/elements/1.1/"
   xmlns:cc="http://creativecommons.org/ns#"
   xmlns:rdf="http://www.w3.org/1999/02/22-rdf-syntax-ns#"
   xmlns:svg="http://www.w3.org/2000/svg"
   xmlns="http://www.w3.org/2000/svg"
   xmlns:sodipodi="http://sodipodi.sourceforge.net/DTD/sodipodi-0.dtd"
   xmlns:inkscape="http://www.inkscape.org/namespaces/inkscape"
   version="1.1"
   id="Layer_1"
   x="0px"
   y="0px"
   width="32"
   height="32"
   viewBox="-0.001 0 32 31.999999"
   xml:space="preserve"
   inkscape:version="0.91 r13725"
   sodipodi:docname="chrome-knipolnnllmklapflnccelgolnpehhpl.svg"><metadata
     id="metadata30"><rdf:RDF><cc:Work
         rdf:about=""><dc:format>image/svg+xml</dc:format><dc:type
           rdf:resource="http://purl.org/dc/dcmitype/StillImage" /><dc:title></dc:title></cc:Work></rdf:RDF></metadata><defs
     id="defs28" /><sodipodi:namedview
     pagecolor="#ffffff"
     bordercolor="#666666"
     borderopacity="1"
     objecttolerance="10"
     gridtolerance="10"
     guidetolerance="10"
     inkscape:pageopacity="0"
     inkscape:pageshadow="2"
     inkscape:window-width="1600"
     inkscape:window-height="850"
     id="namedview26"
     showgrid="false"
     inkscape:zoom="1"
     inkscape:cx="16.271695"
     inkscape:cy="17.314632"
     inkscape:window-x="0"
     inkscape:window-y="25"
     inkscape:window-maximized="1"
     inkscape:current-layer="Layer_1" /><path
     inkscape:connector-curvature="0"
     style="fill:#16a05d;fill-opacity:1"
     d="M 27.804825,11.877063 C 27.362471,9.5601363 26.306394,7.5364006 24.63818,5.8093561 23.934023,5.0802576 23.144975,4.4467087 22.274202,3.9088616 20.652076,2.9071119 18.885033,2.2933425 16.968796,2.0759213 16.735186,2.0492953 16.498249,2.0527943 16.267965,1.9999993 l -1.653327,0 c -0.01789,0.040015 -0.05622,0.025409 -0.08663,0.028148 -0.425726,0.036059 -0.849392,0.082617 -1.269573,0.159148 -3.070509,0.5586912 -5.5920743,2.0069986 -7.5437885,4.3464431 -1.605338,1.9239255 -2.489414,4.1309996 -2.6804199,6.5918596 -0.092494,1.192697 -0.00285,2.374287 0.2692454,3.540205 0.2020927,0.867251 0.5039646,1.705136 0.9097335,2.506049 0.035632,0.06816 0.070796,0.136325 0.1070651,0.204488 0.6666207,1.261012 1.524089,2.384785 2.5986959,3.355344 0.5657326,0.510917 1.1704269,0.973146 1.8250108,1.372537 1.7331867,1.056799 3.6072377,1.639903 5.6145897,1.847369 0.440433,0.04552 0.440433,0.04552 0.440433,0.04552 0.146026,0.002 0.20105,0.03652 0.2001,0.17984 -0.0066,1.222974 -0.0038,2.446101 -0.0035,3.669228 1.59e-4,0.04747 0.0039,0.09479 0.0068,0.153822 0.532453,0.04399 0.990439,-0.221332 1.407293,-0.417734 2.077724,-1.01417 3.99818,-2.257029 5.731766,-3.771077 0.389455,-0.340053 0.762123,-0.696387 1.120537,-1.067478 0.15347,-0.158692 0.305673,-0.320122 0.45946,-0.478661 0.237569,-0.244047 0.443146,-0.516699 0.667095,-0.773679 0.258635,-0.296386 0.490819,-0.611487 0.719836,-0.928566 0.506341,-0.700798 0.958515,-1.431875 1.338626,-2.204184 0.192273,-0.390414 0.37536,-0.783872 0.537383,-1.186611 0.0054,-0.0076 0.01267,-0.0143 0.01615,-0.02252 0.441563,-1.102777 0.724588,-2.243895 0.875207,-3.414682 0.05259,-0.40776 0.08663,-0.818107 0.108173,-1.228148 0.04593,-0.882922 -0.01346,-1.760822 -0.179128,-2.629593 z"
     id="path4173"
     sodipodi:nodetypes="cccccccccccccccsccccccccccccccccc" /><path
     id="path4324"
     d="m 13.34275,11.000506 c -1.561439,0.0018 -3.122327,0.0011 -4.6835938,0.002 -0.118639,0 -0.2308793,0.02502 -0.3339843,0.08789 -0.265452,0.160822 -0.3513925,0.397953 -0.3203125,0.6875 9e-4,0.0149 0.00195,0.03002 0.00195,0.04492 -0.0012,1.547336 -0.00339,2.431345 -0.00391,3.978515 0,0.392956 0.2764826,1.188813 0.6796876,1.195313 0.1075429,0.0018 0.2148926,0.0018 0.3222656,0.002 0.987699,0.0019 2.0067836,0.0039 2.9941406,0.0059 -0.07853,0.434153 -0.283078,0.953971 -0.625,1.261719 -0.284906,0.256289 -0.38401,0.369932 -0.75,0.451172 -0.288667,0.06386 -0.513331,0.159748 -0.513672,0.384765 -2e-4,0.06436 0.0026,0.12867 0.0039,0.19336 l -0.0078,0.878906 c 0.0013,0.163635 0.0015,0.326764 0.0039,0.490234 0.0029,0.233289 0.07512,0.364159 0.314453,0.330079 0.313755,-0.04434 0.619631,-0.113876 0.923828,-0.197266 0.01127,-0.0061 0.0239,-0.01128 0.03516,-0.01758 0.02032,-0.0056 0.03896,-0.01063 0.05859,-0.01563 0.03584,-0.01754 0.07072,-0.03752 0.107422,-0.05273 1.455772,-0.58687 2.444013,-2.017275 2.445313,-3.544922 0.0016,-1.710143 0,-3.418929 0,-5.128907 0,-0.07843 0.0064,-0.159255 -0.02539,-0.234375 0.132979,-0.397423 -0.211116,-0.803231 -0.626953,-0.802734 z m 9,0 c -1.561439,0.0018 -3.122327,0.0011 -4.683594,0.002 -0.118639,0 -0.230879,0.02502 -0.333984,0.08789 -0.265452,0.160822 -0.351393,0.397953 -0.320313,0.6875 9e-4,0.0149 0.002,0.03002 0.002,0.04492 -0.0012,1.547336 -0.0034,2.431345 -0.0039,3.978515 0,0.392956 0.276483,1.188813 0.679688,1.195313 0.107543,0.0018 0.214892,0.0018 0.322265,0.002 0.987699,0.0019 2.006784,0.0039 2.994141,0.0059 -0.07852,0.434153 -0.283078,0.953971 -0.625,1.261719 -0.284906,0.256289 -0.38401,0.369932 -0.75,0.451172 -0.288667,0.06386 -0.513331,0.159748 -0.513672,0.384765 -2e-4,0.06436 0.0026,0.12867 0.0039,0.19336 l -0.0078,0.878906 c 0.0013,0.163635 0.0015,0.326764 0.0039,0.490234 0.0029,0.233289 0.07512,0.364159 0.314453,0.330079 0.313755,-0.04434 0.619631,-0.113876 0.923828,-0.197266 0.01127,-0.0061 0.0239,-0.01128 0.03516,-0.01758 0.02032,-0.0056 0.03896,-0.01063 0.05859,-0.01563 0.03584,-0.01754 0.07072,-0.03752 0.107422,-0.05273 1.455772,-0.58687 2.444013,-2.017275 2.445313,-3.544922 0.0016,-1.710143 0,-3.418929 0,-5.128907 0,-0.07843 0.0064,-0.159255 -0.02539,-0.234375 0.132979,-0.397423 -0.211116,-0.803231 -0.626953,-0.802734 z"
     style="opacity:0.2;fill:#000000;fill-opacity:1"
     inkscape:connector-curvature="0" /><path
     style="fill:#ffffff;fill-opacity:1"
     d="M 13.34375 10 C 11.782311 10.001796 10.221423 10.001113 8.6601562 10.001953 C 8.5415172 10.001953 8.4292769 10.026974 8.3261719 10.089844 C 8.0607199 10.250666 7.9747794 10.487797 8.0058594 10.777344 C 8.0067594 10.792244 8.0078125 10.807366 8.0078125 10.822266 C 8.0066125 12.369602 8.0044203 13.253611 8.0039062 14.800781 C 8.0039062 15.193737 8.2803888 15.989594 8.6835938 15.996094 C 8.7911367 15.99789 8.8984864 15.997882 9.0058594 15.998047 C 9.9935584 15.999947 11.012643 16.001906 12 16.003906 C 11.921475 16.438059 11.716922 16.957877 11.375 17.265625 C 11.090094 17.521914 10.99099 17.635557 10.625 17.716797 C 10.336333 17.780662 10.111669 17.876545 10.111328 18.101562 C 10.111128 18.165925 10.113934 18.230232 10.115234 18.294922 L 10.107422 19.173828 C 10.108722 19.337463 10.108928 19.500592 10.111328 19.664062 C 10.11423 19.897351 10.186451 20.028221 10.425781 19.994141 C 10.739536 19.949799 11.045412 19.880265 11.349609 19.796875 C 11.360879 19.790765 11.373506 19.785597 11.384766 19.779297 C 11.405086 19.773667 11.423729 19.768672 11.443359 19.763672 C 11.479202 19.746132 11.514081 19.726157 11.550781 19.710938 C 13.006553 19.124068 13.994794 17.693663 13.996094 16.166016 C 13.997708 14.455873 13.996094 12.747087 13.996094 11.037109 C 13.996094 10.958683 14.002453 10.877854 13.970703 10.802734 C 14.103682 10.405311 13.759587 9.999503 13.34375 10 z M 22.34375 10 C 20.782311 10.001796 19.221423 10.001113 17.660156 10.001953 C 17.541517 10.001953 17.429277 10.026974 17.326172 10.089844 C 17.06072 10.250666 16.974779 10.487797 17.005859 10.777344 C 17.006759 10.792244 17.007812 10.807366 17.007812 10.822266 C 17.006613 12.369602 17.00442 13.253611 17.003906 14.800781 C 17.003906 15.193737 17.280389 15.989594 17.683594 15.996094 C 17.791137 15.99789 17.898486 15.997882 18.005859 15.998047 C 18.993558 15.999947 20.012643 16.001906 21 16.003906 C 20.921475 16.438059 20.716922 16.957877 20.375 17.265625 C 20.090094 17.521914 19.99099 17.635557 19.625 17.716797 C 19.336333 17.780662 19.111669 17.876545 19.111328 18.101562 C 19.111128 18.165925 19.113934 18.230232 19.115234 18.294922 L 19.107422 19.173828 C 19.108722 19.337463 19.108928 19.500592 19.111328 19.664062 C 19.11423 19.897351 19.186451 20.028221 19.425781 19.994141 C 19.739536 19.949799 20.045412 19.880265 20.349609 19.796875 C 20.360879 19.790765 20.373506 19.785597 20.384766 19.779297 C 20.405086 19.773667 20.423729 19.768672 20.443359 19.763672 C 20.479202 19.746132 20.514081 19.726157 20.550781 19.710938 C 22.006553 19.124068 22.994794 17.693663 22.996094 16.166016 C 22.997708 14.455873 22.996094 12.747087 22.996094 11.037109 C 22.996094 10.958683 23.002453 10.877854 22.970703 10.802734 C 23.103682 10.405311 22.759587 9.999503 22.34375 10 z "
     transform="translate(-0.001,-9.5367432e-7)"
     id="path4295" /><path
     style="fill:#ffffff;fill-opacity:1;opacity:0.2"
     d="M 14.615234 2 C 14.597344 2.040015 14.559707 2.0246048 14.529297 2.0273438 C 14.103571 2.0634027 13.679947 2.110969 13.259766 2.1875 C 10.189257 2.7461912 7.6665579 4.1937586 5.7148438 6.5332031 C 4.1095058 8.4571286 3.2261622 10.66414 3.0351562 13.125 C 2.9987173 13.594875 2.9994137 14.063148 3.0195312 14.529297 C 3.025344 14.393236 3.0245816 14.257452 3.0351562 14.121094 C 3.2261622 11.660234 4.1095058 9.4532224 5.7148438 7.5292969 C 7.6665579 5.1898524 10.189257 3.7403318 13.259766 3.1816406 C 13.679947 3.1051096 14.103571 3.0594965 14.529297 3.0234375 C 14.559707 3.0206985 14.597344 3.0361087 14.615234 2.9960938 L 16.269531 2.9960938 C 16.499815 3.0488888 16.737093 3.0436865 16.970703 3.0703125 C 18.88694 3.2877337 20.653265 3.9025472 22.275391 4.9042969 C 23.146164 5.442144 23.934515 6.075589 24.638672 6.8046875 C 26.306886 8.531732 27.364287 10.55612 27.806641 12.873047 C 27.914717 13.439807 27.960634 14.010595 27.978516 14.583984 C 27.979987 14.557935 27.983006 14.531907 27.984375 14.505859 C 28.030305 13.622937 27.972309 12.745724 27.806641 11.876953 C 27.364287 9.5600264 26.306886 7.5356383 24.638672 5.8085938 C 23.934515 5.0794953 23.146164 4.4460502 22.275391 3.9082031 C 20.653265 2.9064534 18.88694 2.2935931 16.970703 2.0761719 C 16.737093 2.0495459 16.499815 2.052795 16.269531 2 L 14.615234 2 z M 14.998047 27.167969 C 14.996301 28.060831 14.995875 28.952782 14.996094 29.845703 C 14.996116 29.852326 14.997897 29.860538 14.998047 29.867188 C 14.997468 28.968891 14.995153 28.070067 15 27.171875 C 15.000014 27.169808 14.998057 27.169991 14.998047 27.167969 z "
     transform="translate(-0.001,-9.5367432e-7)"
     id="path4326" /><path
     style="fill:#000000;fill-opacity:1;opacity:0.3"
     d="M 3.0195312 13.527344 C 2.9738879 14.583364 3.0632543 15.631484 3.3046875 16.666016 C 3.5067802 17.533267 3.8090748 18.370962 4.2148438 19.171875 C 4.2504757 19.240035 4.2840434 19.30879 4.3203125 19.376953 C 4.9869332 20.637965 5.845315 21.761863 6.9199219 22.732422 C 7.4856545 23.243339 8.0895567 23.704125 8.7441406 24.103516 C 10.477327 25.160315 12.352023 25.743706 14.359375 25.951172 L 14.800781 25.998047 C 14.944728 26.000018 14.997405 26.035588 14.998047 26.173828 C 14.99869 25.839915 14.998198 25.505769 15 25.171875 C 15.00095 25.028555 14.946807 24.994187 14.800781 24.992188 L 14.359375 24.947266 C 12.352023 24.7398 10.477327 24.156408 8.7441406 23.099609 C 8.0895567 22.700218 7.4856545 22.237479 6.9199219 21.726562 C 5.845315 20.756004 4.9869332 19.632106 4.3203125 18.371094 C 4.2840434 18.302931 4.2504757 18.236129 4.2148438 18.167969 C 3.8090748 17.367056 3.5067802 16.527407 3.3046875 15.660156 C 3.1400227 14.954574 3.0506255 14.243393 3.0195312 13.527344 z M 27.976562 13.580078 C 27.954878 13.96404 27.926195 14.348668 27.876953 14.730469 C 27.726334 15.901256 27.443516 17.041754 27.001953 18.144531 C 26.998473 18.152751 26.991728 18.160369 26.986328 18.167969 C 26.824305 18.570708 26.639539 18.963102 26.447266 19.353516 C 26.067155 20.125825 25.615716 20.857796 25.109375 21.558594 C 24.880358 21.875673 24.647307 22.189942 24.388672 22.486328 C 24.164723 22.743308 23.960225 23.015719 23.722656 23.259766 C 23.568869 23.418305 23.417142 23.579589 23.263672 23.738281 C 22.905258 24.109372 22.532033 24.466588 22.142578 24.806641 C 20.408992 26.320689 18.48788 27.563955 16.410156 28.578125 C 15.993302 28.774527 15.536359 29.040084 15.003906 28.996094 C 15.001411 28.945298 14.99897 28.904291 14.998047 28.863281 C 14.998257 29.190879 14.996013 29.518103 14.996094 29.845703 C 14.996253 29.893173 15.001006 29.940968 15.003906 30 C 15.536359 30.04399 15.993302 29.778433 16.410156 29.582031 C 18.48788 28.567861 20.408992 27.324595 22.142578 25.810547 C 22.532033 25.470494 22.905258 25.115232 23.263672 24.744141 C 23.417142 24.585449 23.568869 24.424164 23.722656 24.265625 C 23.960225 24.021578 24.164723 23.749168 24.388672 23.492188 C 24.647307 23.195802 24.880358 22.879579 25.109375 22.5625 C 25.615716 21.861702 26.067155 21.131684 26.447266 20.359375 C 26.639539 19.968961 26.824305 19.574614 26.986328 19.171875 C 26.991728 19.164275 26.998473 19.158611 27.001953 19.150391 C 27.443516 18.047614 27.726334 16.905162 27.876953 15.734375 C 27.929543 15.326615 27.962832 14.9159 27.984375 14.505859 C 28.000502 14.195853 27.986445 13.888668 27.976562 13.580078 z "
     transform="translate(-0.001,-9.5367432e-7)"
     id="path4331" /></svg>
